build/static/img/icons/Logo-leon.svg

<svg width="150" height="33" viewBox="0 0 150 33" fill="none" xmlns="http://www.w3.org/2000/svg">
<g id="Logo">
<path id="Vector" d="M74.0196 0.00573262L67.886 6.1852H49.3419V11.0073H69.9935L64.3753 16.6256H49.3419V21.4477H73.0346L66.8551 27.6272H41.009V0H74.0253L74.0196 0.00573262Z" fill="black"/>
<path id="Vector_2" d="M112.631 21.316L106.354 27.5928H83.3603L77.0835 21.316V6.28255L83.3603 0.0057373H106.354L112.631 6.28255V21.316ZM104.298 21.4592V6.14511H85.4278V21.4592H104.298Z" fill="black"/>
<path id="Vector_3" d="M150 27.6329H141.667V16.6313H125.185V27.6329L116.852 32.3634V0.0057373H125.185V11.0131H141.667V0.0057373H150V27.6329Z" fill="black"/>
<path id="Vector_4" d="M18.7996 8.86542C18.4903 9.42094 18.1925 9.95928 17.8947 10.4976C16.8753 12.3475 15.8616 14.1973 14.8422 16.0528C13.8743 17.8168 12.9122 19.575 11.9443 21.3389C10.8504 23.3319 9.75658 25.3192 8.66845 27.3179C8.54245 27.547 8.39928 27.6443 8.13011 27.6443C5.54149 27.6386 2.95288 27.6443 0.364259 27.6443C-0.0538135 27.6443 -0.0767215 27.6043 0.117997 27.2549C1.93346 23.9161 3.75466 20.5772 5.57013 17.2383C7.03625 14.5409 8.50809 11.8435 9.97421 9.14604C11.5491 6.25962 13.1241 3.3732 14.6933 0.486776C14.7219 0.435233 14.7506 0.389428 14.7735 0.337885C14.8708 0.108804 15.0369 0.0228938 15.2889 0.0286208C15.9418 0.0400749 16.5947 0.0286208 17.2475 0.0286208C18.9198 0.0286208 20.5921 0.0400693 22.2644 0.0228882C22.608 0.0228882 22.797 0.137435 22.9574 0.440967C23.7534 1.92999 24.5724 3.40756 25.3799 4.89086C26.1702 6.34553 26.9606 7.80019 27.7509 9.25485C29.2571 12.0096 30.7633 14.7643 32.2695 17.519C33.329 19.4604 34.3828 21.4076 35.448 23.3548C36.1295 24.609 36.8168 25.8575 37.504 27.1117C37.7847 27.6214 37.7732 27.6443 37.1948 27.6443C34.6978 27.6443 32.2008 27.6443 29.7038 27.6443C29.6351 27.6443 29.5664 27.6443 29.4976 27.6443C29.2915 27.6558 29.154 27.5699 29.0567 27.3866C28.8505 26.9915 28.6271 26.6078 28.4152 26.2126C27.1209 23.8645 25.8323 21.5107 24.538 19.1626C23.0834 16.5225 21.6344 13.8823 20.1798 11.2421C19.7961 10.5434 19.4066 9.84474 19.0172 9.14604C18.9656 9.06013 18.9313 8.95705 18.7938 8.8826L18.7996 8.86542Z" fill="black"/>
</g>
</svg>

<svg width="150" height="33" fill="none" xmlns="http://www.w3.org/2000/svg"><path d="M74.02.006l-6.134 6.18H49.342v4.821h20.651l-5.618 5.619H49.342v4.822h23.693l-6.18 6.18H41.01V0h33.016l-.005.006zm38.611 21.31l-6.277 6.277H83.36l-6.276-6.277V6.283L83.36.006h22.994l6.277 6.277v15.033zm-8.333.143V6.145h-18.87V21.46h18.87zM150 27.633h-8.333V16.63h-16.482v11.002l-8.333 4.73V.006h8.333v11.007h16.482V.006H150v27.627zM18.8 8.865c-.31.556-.608 1.094-.905 1.633-1.02 1.85-2.033 3.7-3.053 5.555l-2.898 5.286c-1.094 1.993-2.187 3.98-3.276 5.979-.126.229-.269.326-.538.326-2.589-.005-5.177 0-7.766 0-.418 0-.44-.04-.246-.39 1.815-3.338 3.637-6.677 5.452-10.016 1.466-2.697 2.938-5.394 4.404-8.092 1.575-2.886 3.15-5.773 4.72-8.66.028-.05.057-.097.08-.148.097-.23.263-.315.515-.31.653.012 1.306 0 1.958 0 1.673 0 3.345.012 5.017-.005.344 0 .533.114.693.418.796 1.489 1.615 2.967 2.423 4.45l2.37 4.364 4.52 8.264c1.059 1.941 2.113 3.889 3.178 5.836.681 1.254 1.369 2.503 2.056 3.757.28.51.27.532-.31.532h-7.695c-.207.012-.344-.074-.441-.257-.206-.396-.43-.78-.642-1.174-1.294-2.349-2.583-4.702-3.877-7.05-1.455-2.64-2.904-5.28-4.358-7.92-.384-.7-.773-1.398-1.163-2.097-.051-.086-.086-.189-.223-.263l.006-.018z" fill="#000"/></svg>
